actions/22x22-light/filename-bpm-amarok.svg

<svg xmlns="http://www.w3.org/2000/svg" viewBox="0 0 22 22">
 <defs id="defs3051">
   <style type="text/css" id="current-color-scheme">
     .ColorScheme-Text {
       color:#4d4d4d;
     }
     </style>
 </defs>
   <path
      style="fill:currentColor;fill-opacity:1;stroke:none"
      d="m11 3c-4.4182991 0-8 3.5817009-8 8 0 4.418299 3.5817009 8 8 8 4.418298 0 8-3.581701 8-8 0-4.4182991-3.581702-8-8-8zm-.154297 1.5527344c.083403-.0026055.166836.0024296.25.0058594.16694.003084.331825.0179156.498047.0332031.331034.0392955.661783.096137.982422.1816406.641729.1680032 1.252493.4262875 1.798828.7558594.069365.0395348.135555.0827124.201172.1269531.065909.0438421.133085.0857147.197266.1308594.126766.092496.254655.1804466.373046.2792968.242606.1909475.463927.3999614.669922.6113282.407419.4271991.74544.8797756 1.00586 1.3300781.261509.4498246.451366.8915446.58789 1.2949219.138545.4032709.219507.7696266.271485 1.0722656.012363.075906.024096.147233.035156.214844.009438.069897.016365.138852.023437.201172.0067.062798.011862.120627.017578.173828.005132.052137.006842.088721.009766.126953.009704.146441.013672.224609.013672.224609l-1.626953.041016s.001726-.077823.003906-.22461c.000266-.035068.00299-.081413.001953-.11914-.001249-.03661-.002577-.077917-.003906-.121094-.001303-.043629-.002471-.090588-.003906-.140625-.004307-.05336-.008807-.110048-.013672-.169922-.020977-.239335-.061128-.530668-.144531-.8574216-.081516-.3268866-.202766-.6898144-.382813-1.0683594-.178983-.3789439-.42359-.7683387-.728516-1.1464844-.154789-.1867733-.321476-.3745506-.509765-.5488281-.091193-.0905554-.191926-.1714847-.291016-.2578125-.050382-.0420606-.102319-.0817305-.154297-.1230469-.051711-.0416351-.106649-.0815464-.162109-.1191406-.434697-.3135402-.931534-.5747716-1.46875-.7636719-.268315-.095926-.54787-.1665966-.832031-.2246094-.142852-.0246461-.286317-.0521822-.431641-.0664062-.072502-.0089598-.145583-.018161-.21875-.0214844l-.109375-.0078125-.054687-.0039062-.027344-.0019531h-.013672-.007813c.002287-.0002393-.014385-.0014746.003907-.0019532-.153673-.0009837-.32189-.0083217-.457031 0-.140513.0013028-.286914.0149011-.4335942.0273438-.2915791.0335261-.5826151.0802522-.8652344.1542968-.5657437.1452182-1.1041411.371422-1.5878906.6601563-.0615754.0344035-.1215951.070478-.1796876.109375-.0583317.0384713-.1169586.0756198-.1738281.1152344-.1121171.0815158-.2271723.1589683-.3320312.2460937-.2155138.1674978-.4104596.3512134-.59375.5371094-.3619548.3762848-.6643803.7764862-.8964844 1.1738281-.2332473.3969432-.4027982.7862332-.5253906 1.1425781-.1245599.3562652-.1968691.6792688-.2441407.9472658-.0112994.067212-.0230469.131532-.0332031.191406-.0073114.060299-.0132035.11728-.0195312.169922-.0131074.105258-.0241799.194437-.0273438.267578-.0094383.14684-.0136719.22461-.0136719.22461s-.0017261-.07777-.0039062-.22461c-.002765-.073646-.0005604-.164897.0039062-.271484.002127-.05336.0054729-.110699.0078126-.171875.0052908-.061017.0116492-.124872.0175781-.19336.0257096-.273925.070501-.6085823.1679687-.9824215.0955269-.3738391.2387442-.7891171.4472656-1.2207031.2073783-.4319315.4875013-.8735681.8378907-1.3027344.177521-.2122439.3686566-.425346.5839843-.6230469.1046995-.1022537.2202455-.1955807.3339844-.2929687.0576671-.0475907.1181796-.0921447.1777344-.1386719.0592889-.0469526.1202902-.0921467.1835938-.1347656.4972557-.3544841 1.0665126-.6495631 1.6796874-.8613281.3063083-.107385.623543-.186218.9472657-.25.1623931-.0275175.324342-.0562337.4960941-.0722657.176138-.022785.323511-.0270452.482422-.0390625zm2.148438 4.4628906-1.886719 2.75c.049398.322606-.049629.664558-.298828.912109-.414331.411726-1.0843685.408525-1.496094-.005859-.4117521-.414331-.4084982-1.082389.0058594-1.494141.2491995-.247577.5899287-.344308.9121096-.292968z"
      class="ColorScheme-Text" />
</svg>

<svg xmlns="http://www.w3.org/2000/svg" viewBox="0 0 22 22">
  <defs id="defs3051">
    <style type="text/css" id="current-color-scheme">
      .ColorScheme-Text {
        color:#4d4d4d
      }
      </style>
  </defs>
 <path 
     style="fill:currentColor;fill-opacity:1;stroke:none"      
	 class="ColorScheme-Text"
        d="M 11 3 C 6.5817009 3 3 6.5817009 3 11 C 3 15.418299 6.5817009 19 11 19 C 15.418298 19 19 15.418299 19 11 C 19 6.5817009 15.418298 3 11 3 z M 10.845703 4.5527344 C 10.929106 4.5501289 11.012539 4.555164 11.095703 4.5585938 C 11.262643 4.5616778 11.427528 4.5765094 11.59375 4.5917969 C 11.924784 4.6310924 12.255533 4.6879339 12.576172 4.7734375 C 13.217901 4.9414407 13.828665 5.199725 14.375 5.5292969 C 14.444365 5.5688317 14.510555 5.6120093 14.576172 5.65625 C 14.642081 5.7000921 14.709257 5.7419647 14.773438 5.7871094 C 14.900204 5.8796054 15.028093 5.967556 15.146484 6.0664062 C 15.38909 6.2573537 15.610411 6.4663676 15.816406 6.6777344 C 16.223825 7.1049335 16.561846 7.55751 16.822266 8.0078125 C 17.083775 8.4576371 17.273632 8.8993571 17.410156 9.3027344 C 17.548701 9.7060053 17.629663 10.072361 17.681641 10.375 C 17.694004 10.450906 17.705737 10.522233 17.716797 10.589844 C 17.726235 10.659741 17.733162 10.728696 17.740234 10.791016 C 17.746934 10.853814 17.752096 10.911643 17.757812 10.964844 C 17.762944 11.016981 17.764654 11.053565 17.767578 11.091797 C 17.777282 11.238238 17.78125 11.316406 17.78125 11.316406 L 16.154297 11.357422 C 16.154297 11.357422 16.156023 11.279599 16.158203 11.132812 C 16.158469 11.097744 16.161193 11.051399 16.160156 11.013672 C 16.158907 10.977062 16.157579 10.935755 16.15625 10.892578 C 16.154947 10.848949 16.153779 10.80199 16.152344 10.751953 C 16.148037 10.698593 16.143537 10.641905 16.138672 10.582031 C 16.117695 10.342696 16.077544 10.051363 15.994141 9.7246094 C 15.912625 9.3977228 15.791375 9.034795 15.611328 8.65625 C 15.432345 8.2773061 15.187738 7.8879113 14.882812 7.5097656 C 14.728023 7.3229923 14.561336 7.135215 14.373047 6.9609375 C 14.281854 6.8703821 14.181121 6.7894528 14.082031 6.703125 C 14.031649 6.6610644 13.979712 6.6213945 13.927734 6.5800781 C 13.876023 6.538443 13.821085 6.4985317 13.765625 6.4609375 C 13.330928 6.1473973 12.834091 5.8861659 12.296875 5.6972656 C 12.02856 5.6013396 11.749005 5.530669 11.464844 5.4726562 C 11.321992 5.4480101 11.178527 5.420474 11.033203 5.40625 C 10.960701 5.3972902 10.88762 5.388089 10.814453 5.3847656 L 10.705078 5.3769531 L 10.650391 5.3730469 L 10.623047 5.3710938 L 10.609375 5.3710938 L 10.601562 5.3710938 C 10.603849 5.3708545 10.587177 5.3696192 10.605469 5.3691406 C 10.451796 5.3681569 10.283579 5.3608189 10.148438 5.3691406 C 10.007925 5.3704434 9.861524 5.3840417 9.7148438 5.3964844 C 9.4232647 5.4300105 9.1322287 5.4767366 8.8496094 5.5507812 C 8.2838657 5.6959994 7.7454683 5.9222032 7.2617188 6.2109375 C 7.2001434 6.245341 7.1401237 6.2814155 7.0820312 6.3203125 C 7.0236995 6.3587838 6.9650726 6.3959323 6.9082031 6.4355469 C 6.796086 6.5170627 6.6810308 6.5945152 6.5761719 6.6816406 C 6.3606581 6.8491384 6.1657123 7.032854 5.9824219 7.21875 C 5.6204671 7.5950348 5.3180416 7.9952362 5.0859375 8.3925781 C 4.8526902 8.7895213 4.6831393 9.1788113 4.5605469 9.5351562 C 4.435987 9.8914214 4.3636778 10.214425 4.3164062 10.482422 C 4.3051068 10.549634 4.2933593 10.613954 4.2832031 10.673828 C 4.2758917 10.734127 4.2699996 10.791108 4.2636719 10.84375 C 4.2505645 10.949008 4.239492 11.038187 4.2363281 11.111328 C 4.2268898 11.258168 4.2226562 11.335938 4.2226562 11.335938 C 4.2226562 11.335938 4.2209301 11.258168 4.21875 11.111328 C 4.215985 11.037682 4.2181896 10.946431 4.2226562 10.839844 C 4.2247832 10.786484 4.2281291 10.729145 4.2304688 10.667969 C 4.2357596 10.606952 4.242118 10.543097 4.2480469 10.474609 C 4.2737565 10.200684 4.3185479 9.8660267 4.4160156 9.4921875 C 4.5115425 9.1183484 4.6547598 8.7030704 4.8632812 8.2714844 C 5.0706595 7.8395529 5.3507825 7.3979163 5.7011719 6.96875 C 5.8786929 6.7565061 6.0698285 6.543404 6.2851562 6.3457031 C 6.3898557 6.2434494 6.5054017 6.1501224 6.6191406 6.0527344 C 6.6768077 6.0051437 6.7373202 5.9605897 6.796875 5.9140625 C 6.8561639 5.8671099 6.9171652 5.8219158 6.9804688 5.7792969 C 7.4777245 5.4248128 8.0469814 5.1297338 8.6601562 4.9179688 C 8.9664645 4.8105838 9.2836992 4.7317508 9.6074219 4.6679688 C 9.769815 4.6404513 9.9317639 4.6117351 10.103516 4.5957031 C 10.279654 4.5729181 10.427027 4.5686579 10.585938 4.5566406 L 10.845703 4.5527344 z M 12.994141 9.015625 L 11.107422 11.765625 C 11.15682 12.088231 11.057793 12.430183 10.808594 12.677734 C 10.394263 13.08946 9.7242255 13.086259 9.3125 12.671875 C 8.9007479 12.257544 8.9040018 11.589486 9.3183594 11.177734 C 9.5675589 10.930157 9.9082881 10.833426 10.230469 10.884766 L 12.994141 9.015625 z "
     />
</svg>
